X:2
T:Mazurka F 2- chords
M:3/4
L:1/8
K:Fmaj%%MIDI gchordon
"F"(3ccc c2f2 | "C7"f2e2e2 | "Bb"e2d2d2 | "F"d2c2c2 | (3fff a2c2 | "Bb"c2d2d2 | "C7"(3ccc e2g2 | "F"a2f2f2 | 
(3ccc c2f2 | "C7"f2e2e2 | "Bb"e2d2d2 | "F"d2c2c2 | "Bb"c2 B>A B>c | "F"B2 A>G A>B | "C7"a2 g>^f g>a | "F"f2f2z2 | 
|: "C7"B2B2 A>G | "F"F>d c2c2 | "C7"ce e2 dc | "F"cff2 cA | "C7"B2B2 A>G | "F"F>dc2c2 | "C7"ce ed BG | "F"F2F2z2 :| 
% mz05150

